X: 32
T: Am Monadh Ruadh
C: Calum Stewart
O: Scotland
R: march
M: C
L: 1/8
K: Emin
"Em" E2GB e2ed|"D" de A2 AGAB|"G" G3d g3f|"D" fgag f2Bd|
"Em" e2 dB e2 dB|"D" A2 AB ED D2|1 "G" G6 AG|"D" F3 A FA F/E/D:|2 "G" G3 A "D" F2 ED|"Em" E4 z ABd||
"Em" e2e3dgf|"D" d2d3 ABd|"G" gfdB e2 dB|"D" de2E zABd|
"Em" e2 dB e2 dB|"D" A2 AB ED D2|1 "G" G6 AG|F3"D" A FABd:|2 "G" G3 A "D" F2 ED|"Em" E8||

